Numix-Light/16/status/indicator-keyboard-Sy.svg

<?xml version="1.0" encoding="UTF-8" standalone="no"?>
<svg
   xmlns:dc="http://purl.org/dc/elements/1.1/"
   xmlns:cc="http://creativecommons.org/ns#"
   xmlns:rdf="http://www.w3.org/1999/02/22-rdf-syntax-ns#"
   xmlns:svg="http://www.w3.org/2000/svg"
   xmlns="http://www.w3.org/2000/svg"
   xmlns:sodipodi="http://sodipodi.sourceforge.net/DTD/sodipodi-0.dtd"
   xmlns:inkscape="http://www.inkscape.org/namespaces/inkscape"
   viewBox="0 0 16 16"
   id="svg2"
   version="1.1"
   inkscape:version="0.91 r13725"
   sodipodi:docname="indicator-keyboard-Sy.svg">
  <metadata
     id="metadata13">
    <rdf:RDF>
      <cc:Work
         rdf:about="">
        <dc:format>image/svg+xml</dc:format>
        <dc:type
           rdf:resource="http://purl.org/dc/dcmitype/StillImage" />
      </cc:Work>
    </rdf:RDF>
  </metadata>
  <defs
     id="defs11" />
  <sodipodi:namedview
     pagecolor="#ffffff"
     bordercolor="#666666"
     borderopacity="1"
     objecttolerance="10"
     gridtolerance="10"
     guidetolerance="10"
     inkscape:pageopacity="0"
     inkscape:pageshadow="2"
     inkscape:window-width="640"
     inkscape:window-height="480"
     id="namedview9"
     showgrid="false"
     inkscape:zoom="14.75"
     inkscape:cx="8"
     inkscape:cy="8"
     inkscape:window-x="65"
     inkscape:window-y="24"
     inkscape:window-maximized="0"
     inkscape:current-layer="svg2" />
  <path
     style="fill:#353535;fill-opacity:1"
     d="M 1.5996094 0 C 0.71320937 2.9605947e-16 0 0.71320937 0 1.5996094 L 0 14.400391 C 2.9605947e-16 15.286791 0.71320937 16 1.5996094 16 L 14.400391 16 C 15.286791 16 16 15.286791 16 14.400391 L 16 1.5996094 C 16 0.71320937 15.286791 0 14.400391 0 L 1.5996094 0 z M 6.0332031 3.96875 C 6.2012031 3.96875 6.3672969 3.9799063 6.5292969 4.0039062 C 6.6912969 4.0279062 6.8405156 4.0615156 6.9785156 4.1035156 C 7.1225156 4.1395156 7.2512344 4.1805156 7.3652344 4.2285156 C 7.4852344 4.2765156 7.5841094 4.3288125 7.6621094 4.3828125 L 7.4472656 4.8945312 C 7.2732656 4.7745312 7.0605937 4.6794219 6.8085938 4.6074219 C 6.5625938 4.5354219 6.2958125 4.4980469 6.0078125 4.4980469 C 5.8098125 4.4980469 5.6250313 4.5205 5.4570312 4.5625 C 5.2950313 4.5985 5.1551563 4.6619531 5.0351562 4.7519531 C 4.9151562 4.8359531 4.8180938 4.9422188 4.7460938 5.0742188 C 4.6800938 5.2062188 4.6484375 5.3667344 4.6484375 5.5527344 C 4.6484375 5.7447344 4.6838594 5.9051094 4.7558594 6.0371094 C 4.8278594 6.1691094 4.9267344 6.2848594 5.0527344 6.3808594 C 5.1847344 6.4768594 5.3377188 6.562625 5.5117188 6.640625 C 5.6857188 6.718625 5.874125 6.8007656 6.078125 6.8847656 C 6.324125 6.9867656 6.5554844 7.0874531 6.7714844 7.1894531 C 6.9934844 7.2914531 7.1856562 7.4127812 7.3476562 7.5507812 C 7.5096563 7.6887812 7.638375 7.8566875 7.734375 8.0546875 C 7.830375 8.2526875 7.8789062 8.4952031 7.8789062 8.7832031 C 7.8789062 9.3472031 7.6811563 9.7707345 7.2851562 10.052734 C 6.8951563 10.334734 6.3634062 10.474609 5.6914062 10.474609 C 5.4514063 10.474609 5.2331562 10.459687 5.0351562 10.429688 C 4.8371562 10.399687 4.6599062 10.364266 4.5039062 10.322266 C 4.3479063 10.274266 4.2154219 10.225734 4.1074219 10.177734 C 3.9994219 10.129734 3.9154688 10.088734 3.8554688 10.052734 L 4.0546875 9.5214844 C 4.1146875 9.5574844 4.194875 9.5984844 4.296875 9.6464844 C 4.398875 9.6944844 4.51825 9.7430156 4.65625 9.7910156 C 4.79425 9.8330156 4.951 9.8684375 5.125 9.8984375 C 5.299 9.9284375 5.4911719 9.9433594 5.7011719 9.9433594 C 6.1871719 9.9433594 6.5639844 9.8575938 6.8339844 9.6835938 C 7.1039844 9.5035937 7.2402344 9.2143594 7.2402344 8.8183594 C 7.2402344 8.5903594 7.1954688 8.4019531 7.1054688 8.2519531 C 7.0214688 8.0959531 6.9076719 7.9672344 6.7636719 7.8652344 C 6.6196719 7.7572344 6.4535781 7.6677031 6.2675781 7.5957031 C 6.0815781 7.5177031 5.8875938 7.4355625 5.6835938 7.3515625 C 5.4255938 7.2495625 5.1942344 7.1451094 4.9902344 7.0371094 C 4.7862344 6.9291094 4.61275 6.8097344 4.46875 6.6777344 C 4.32475 6.5397344 4.2127656 6.3829844 4.1347656 6.2089844 C 4.0627656 6.0349844 4.0273438 5.8316562 4.0273438 5.5976562 C 4.0273438 5.0636563 4.2045938 4.6588125 4.5585938 4.3828125 C 4.9125938 4.1068125 5.4032031 3.96875 6.0332031 3.96875 z M 8.265625 5.6875 L 8.8867188 5.6875 C 8.9527187 5.9755 9.0366719 6.2870469 9.1386719 6.6230469 C 9.2406719 6.9530469 9.3544688 7.2944375 9.4804688 7.6484375 C 9.6124687 8.0024375 9.7561094 8.3662813 9.9121094 8.7382812 C 10.068109 9.1102813 10.236016 9.4759375 10.416016 9.8359375 C 10.548016 9.4639375 10.665578 9.1132031 10.767578 8.7832031 C 10.869578 8.4532031 10.962875 8.1267344 11.046875 7.8027344 C 11.136875 7.4727344 11.220828 7.1369219 11.298828 6.7949219 C 11.382828 6.4529219 11.468594 6.0835 11.558594 5.6875 L 12.144531 5.6875 C 11.952531 6.5575 11.732328 7.4026094 11.486328 8.2246094 C 11.240328 9.0466094 10.973547 9.8003751 10.685547 10.484375 C 10.571547 10.754375 10.455937 10.985734 10.335938 11.177734 C 10.215938 11.375734 10.079687 11.536109 9.9296875 11.662109 C 9.7856875 11.788109 9.6159687 11.881406 9.4179688 11.941406 C 9.2259688 12.001406 8.9964219 12.03125 8.7324219 12.03125 C 8.5824219 12.03125 8.4443594 12.014516 8.3183594 11.978516 C 8.1983594 11.942516 8.12375 11.914484 8.09375 11.896484 L 8.2109375 11.410156 C 8.2349375 11.428156 8.3002031 11.452422 8.4082031 11.482422 C 8.5222031 11.518422 8.6397656 11.537109 8.7597656 11.537109 C 8.9277656 11.537109 9.0789375 11.518422 9.2109375 11.482422 C 9.3489375 11.446422 9.470125 11.384922 9.578125 11.294922 C 9.686125 11.210922 9.7831875 11.098937 9.8671875 10.960938 C 9.9571874 10.822937 10.044906 10.649453 10.128906 10.439453 C 9.9309064 10.073453 9.7387344 9.692875 9.5527344 9.296875 C 9.3727344 8.900875 9.2010625 8.5016094 9.0390625 8.0996094 C 8.8830625 7.6916094 8.7394219 7.2867656 8.6074219 6.8847656 C 8.4754219 6.4767656 8.361625 6.0775 8.265625 5.6875 z "
     id="path4" />
</svg>

<svg xmlns="http://www.w3.org/2000/svg" viewBox="0 0 16 16">
 <path d="m 1.6 0 c -0.886 0 -1.6 0.713 -1.6 1.6 l 0 12.801 c 0 0.886 0.713 1.6 1.6 1.6 l 12.801 0 c 0.886 0 1.6 -0.713 1.6 -1.6 l 0 -12.801 c 0 -0.886 -0.713 -1.6 -1.6 -1.6 l -12.801 0 z m 4.434 3.969 c 0.168 0 0.334 0.011 0.496 0.035 c 0.162 0.024 0.311 0.058 0.449 0.1 c 0.144 0.036 0.273 0.077 0.387 0.125 c 0.12 0.048 0.219 0.1 0.297 0.154 l -0.215 0.512 c -0.174 -0.12 -0.387 -0.215 -0.639 -0.287 c -0.246 -0.072 -0.513 -0.109 -0.801 -0.109 c -0.198 0 -0.383 0.022 -0.551 0.064 c -0.162 0.036 -0.302 0.099 -0.422 0.189 c -0.12 0.084 -0.217 0.19 -0.289 0.322 c -0.066 0.132 -0.098 0.293 -0.098 0.479 c 0 0.192 0.035 0.352 0.107 0.484 c 0.072 0.132 0.171 0.248 0.297 0.344 c 0.132 0.096 0.285 0.182 0.459 0.26 c 0.174 0.078 0.362 0.16 0.566 0.244 c 0.246 0.102 0.477 0.203 0.693 0.305 c 0.222 0.102 0.414 0.223 0.576 0.361 c 0.162 0.138 0.291 0.306 0.387 0.504 c 0.096 0.198 0.145 0.441 0.145 0.729 c 0 0.564 -0.198 0.988 -0.594 1.27 c -0.39 0.282 -0.922 0.422 -1.594 0.422 c -0.24 0 -0.458 -0.015 -0.656 -0.045 c -0.198 -0.03 -0.375 -0.065 -0.531 -0.107 c -0.156 -0.048 -0.288 -0.097 -0.396 -0.145 c -0.108 -0.048 -0.192 -0.089 -0.252 -0.125 l 0.199 -0.531 c 0.06 0.036 0.14 0.077 0.242 0.125 c 0.102 0.048 0.221 0.097 0.359 0.145 c 0.138 0.042 0.295 0.077 0.469 0.107 c 0.174 0.03 0.366 0.045 0.576 0.045 c 0.486 0 0.863 -0.086 1.133 -0.26 c 0.27 -0.18 0.406 -0.469 0.406 -0.865 c 0 -0.228 -0.045 -0.416 -0.135 -0.566 c -0.084 -0.156 -0.198 -0.285 -0.342 -0.387 c -0.144 -0.108 -0.31 -0.198 -0.496 -0.27 c -0.186 -0.078 -0.38 -0.16 -0.584 -0.244 c -0.258 -0.102 -0.489 -0.206 -0.693 -0.314 c -0.204 -0.108 -0.377 -0.227 -0.521 -0.359 c -0.144 -0.138 -0.256 -0.295 -0.334 -0.469 c -0.072 -0.174 -0.107 -0.377 -0.107 -0.611 c 0 -0.534 0.177 -0.939 0.531 -1.215 c 0.354 -0.276 0.845 -0.414 1.475 -0.414 z m 2.232 1.719 l 0.621 0 c 0.066 0.288 0.15 0.6 0.252 0.936 c 0.102 0.33 0.216 0.671 0.342 1.025 c 0.132 0.354 0.276 0.718 0.432 1.09 c 0.156 0.372 0.324 0.738 0.504 1.098 c 0.132 -0.372 0.25 -0.723 0.352 -1.053 c 0.102 -0.33 0.195 -0.656 0.279 -0.98 c 0.09 -0.33 0.174 -0.666 0.252 -1.01 c 0.084 -0.342 0.17 -0.711 0.26 -1.107 l 0.586 0 c -0.192 0.87 -0.412 1.715 -0.658 2.537 c -0.246 0.822 -0.513 1.576 -0.801 2.26 c -0.114 0.27 -0.23 0.501 -0.35 0.693 c -0.12 0.198 -0.256 0.358 -0.406 0.484 c -0.144 0.126 -0.314 0.219 -0.512 0.279 c -0.192 0.06 -0.422 0.09 -0.686 0.09 c -0.15 0 -0.288 -0.017 -0.414 -0.053 c -0.12 -0.036 -0.195 -0.064 -0.225 -0.082 l 0.117 -0.486 c 0.024 0.018 0.089 0.042 0.197 0.072 c 0.114 0.036 0.232 0.055 0.352 0.055 c 0.168 0 0.319 -0.019 0.451 -0.055 c 0.138 -0.036 0.259 -0.098 0.367 -0.188 c 0.108 -0.084 0.205 -0.196 0.289 -0.334 c 0.09 -0.138 0.178 -0.311 0.262 -0.521 c -0.198 -0.366 -0.39 -0.747 -0.576 -1.143 c -0.18 -0.396 -0.352 -0.795 -0.514 -1.197 c -0.156 -0.408 -0.3 -0.813 -0.432 -1.215 c -0.132 -0.408 -0.246 -0.807 -0.342 -1.197 z" style="fill:#353535;fill-opacity:1"/>
</svg>
